assets/icons/call.svg

<svg width="34" height="35" viewBox="0 0 34 35" fill="none" xmlns="http://www.w3.org/2000/svg">
<path d="M32.2348 26.2178C30.9942 24.9678 27.9895 23.1436 26.5317 22.4085C24.6333 21.4522 24.477 21.3741 22.9848 22.4827C21.9895 23.2225 21.3278 23.8835 20.1629 23.635C18.9981 23.3866 16.4669 21.9858 14.2504 19.7764C12.034 17.5671 10.552 14.9624 10.3028 13.8014C10.0536 12.6405 10.7254 11.9866 11.4583 10.9889C12.4911 9.58268 12.4129 9.34831 11.5301 7.44987C10.8419 5.97331 8.96451 2.99674 7.70982 1.76237C6.36763 0.436586 6.36763 0.670961 5.50279 1.03034C4.79871 1.32658 4.12323 1.68667 3.48482 2.10612C2.23482 2.93659 1.54107 3.62643 1.05592 4.66315C0.57076 5.69987 0.352791 8.13034 2.85826 12.6819C5.36373 17.2335 7.12154 19.5608 10.7598 23.1889C14.3981 26.8171 17.1958 28.7678 21.2856 31.0616C26.345 33.8952 28.2856 33.3428 29.3254 32.8585C30.3653 32.3741 31.0583 31.6866 31.8903 30.4366C32.3108 29.7993 32.6717 29.1245 32.9684 28.421C33.3286 27.5592 33.5629 27.5592 32.2348 26.2178Z" stroke="white" stroke-width="1.5" stroke-miterlimit="10"/>
</svg>

<svg width="34" height="35" fill="none" xmlns="http://www.w3.org/2000/svg"><path d="M32.235 26.218c-1.24-1.25-4.245-3.074-5.703-3.81-1.899-.956-2.055-1.034-3.547.075-.995.74-1.657 1.4-2.822 1.152s-3.696-1.65-5.913-3.859c-2.216-2.209-3.698-4.814-3.947-5.975-.25-1.16.422-1.814 1.155-2.812 1.033-1.406.955-1.64.072-3.54-.688-1.476-2.565-4.452-3.82-5.687C6.368.437 6.368.671 5.503 1.03c-.704.297-1.38.657-2.018 1.076-1.25.83-1.944 1.52-2.43 2.557C.572 5.7.354 8.13 2.859 12.682c2.506 4.551 4.264 6.879 7.902 10.507s6.436 5.579 10.526 7.873c5.059 2.833 7 2.28 8.04 1.796 1.04-.484 1.732-1.171 2.564-2.421a12.47 12.47 0 001.078-2.016c.36-.862.595-.862-.733-2.203z" stroke="#fff" stroke-width="1.5" stroke-miterlimit="10"/></svg>
